Sources/FrostedUI/Resources/Icons.xcassets/ethereum32.imageset/ethereum-32.svg

<svg width="32" height="32" viewBox="0 0 32 32" fill="none" xmlns="http://www.w3.org/2000/svg" data-fui-icon="true">
  <path
    d="M24.8933 17.0898C25.2023 16.923 25.5859 16.9935 25.8162 17.2588C26.0464 17.5242 26.0613 17.9139 25.8523 18.1963L16.6023 30.6963C16.4608 30.8872 16.2374 31 15.9998 31C15.7622 30.9999 15.5386 30.8872 15.3972 30.6963L6.14722 18.1963C5.93834 17.9139 5.95329 17.5242 6.18335 17.2588C6.41352 16.9935 6.79715 16.9231 7.1062 17.0898L15.9998 21.8965L24.8933 17.0898ZM16.3562 23.4102C16.1339 23.5301 15.8656 23.5302 15.6433 23.4102L9.3562 20.0117L15.9998 28.9893L22.6423 20.0117L16.3562 23.4102ZM15.9998 1C16.2322 1 16.4515 1.10798 16.5935 1.29199L25.8435 13.292C25.9812 13.4706 26.0318 13.7023 25.9802 13.9219C25.9286 14.1413 25.7806 14.3262 25.5779 14.4248L16.3279 18.9248C16.1209 19.0254 15.8786 19.0255 15.6716 18.9248L6.42163 14.4248L6.34839 14.3838C6.18361 14.2794 6.06447 14.1139 6.01929 13.9219C5.96775 13.7024 6.01838 13.4706 6.15601 13.292L15.406 1.29199C15.548 1.10797 15.7673 1.00007 15.9998 1ZM7.90601 13.4785L15.9998 17.416L24.0925 13.4785L15.9998 2.97852L7.90601 13.4785Z"
    fill="currentColor"
  />
</svg>

<svg xmlns="http://www.w3.org/2000/svg" width="32" height="32" fill="none" data-fui-icon="true" viewBox="0 0 32 32"><path fill="currentColor" d="M24.893 17.09a.75.75 0 0 1 .96 1.106l-9.25 12.5a.75.75 0 0 1-1.206 0l-9.25-12.5a.75.75 0 0 1 .96-1.106L16 21.897zm-8.537 6.32a.75.75 0 0 1-.713 0l-6.287-3.398L16 28.989l6.642-8.977zM16 1a.75.75 0 0 1 .593.292l9.25 12a.75.75 0 0 1-.265 1.133l-9.25 4.5c-.207.1-.45.1-.656 0l-9.25-4.5-.074-.041a.75.75 0 0 1-.192-1.092l9.25-12A.75.75 0 0 1 16 1M7.906 13.479 16 17.416l8.093-3.937L16 2.979z"/></svg>
